symbols/web/arrow_back_ios/materialsymbolsrounded/arrow_back_ios_wght500gradN25_48px.svg

<svg xmlns="http://www.w3.org/2000/svg" height="48" width="48"><path d="M18.7 42.55 1.3 25.15q-.25-.25-.375-.55Q.8 24.3.8 24t.125-.6q.125-.3.375-.55L18.75 5.4q.6-.6 1.475-.6.875 0 1.475.6.6.65.6 1.525 0 .875-.6 1.525L6.15 24 21.7 39.55q.65.65.625 1.525-.025.875-.625 1.425-.6.65-1.5.675-.9.025-1.5-.625Z"/></svg>

<svg xmlns="http://www.w3.org/2000/svg" height="48" width="48"><path d="M18.7 42.55 1.3 25.15Q1.05 24.9 0.925 24.6Q0.8 24.3 0.8 24Q0.8 23.7 0.925 23.4Q1.05 23.1 1.3 22.85L18.75 5.4Q19.35 4.8 20.225 4.8Q21.1 4.8 21.7 5.4Q22.3 6.05 22.3 6.925Q22.3 7.8 21.7 8.45L6.15 24L21.7 39.55Q22.35 40.2 22.325 41.075Q22.3 41.95 21.7 42.5Q21.1 43.15 20.2 43.175Q19.3 43.2 18.7 42.55Z"/></svg>
